svg/fluentui-system-icons/ic_fluent_math_symbols_32_filled.svg

<svg width="32" height="32" viewBox="0 0 32 32" fill="none" xmlns="http://www.w3.org/2000/svg">
<path d="M8 1.75C8.69036 1.75 9.25 2.30964 9.25 3V6.5H12.75C13.4404 6.5 14 7.05964 14 7.75C14 8.44036 13.4404 9 12.75 9H9.25V13C9.25 13.6904 8.69036 14.25 8 14.25C7.30964 14.25 6.75 13.6904 6.75 13V9H3.25C2.55964 9 2 8.44036 2 7.75C2 7.05964 2.55964 6.5 3.25 6.5H6.75V3C6.75 2.30964 7.30964 1.75 8 1.75ZM13.6339 26.8661L9.76777 23L13.6339 19.1339C14.122 18.6457 14.122 17.8543 13.6339 17.3661C13.1457 16.878 12.3543 16.878 11.8661 17.3661L8 21.2322L4.13388 17.3661C3.64573 16.878 2.85427 16.878 2.36612 17.3661C1.87796 17.8543 1.87796 18.6457 2.36612 19.1339L6.23223 23L2.36612 26.8661C1.87796 27.3543 1.87796 28.1457 2.36612 28.6339C2.85427 29.122 3.64573 29.122 4.13388 28.6339L8 24.7678L11.8661 28.6339C12.3543 29.122 13.1457 29.122 13.6339 28.6339C14.122 28.1457 14.122 27.3543 13.6339 26.8661ZM19.25 6.5C18.5596 6.5 18 7.05964 18 7.75C18 8.44036 18.5596 9 19.25 9H28.75C29.4404 9 30 8.44036 30 7.75C30 7.05964 29.4404 6.5 28.75 6.5H19.25ZM19.25 21.5C18.5596 21.5 18 22.0596 18 22.75C18 23.4404 18.5596 24 19.25 24H28.75C29.4404 24 30 23.4404 30 22.75C30 22.0596 29.4404 21.5 28.75 21.5H19.25ZM26 18.5C26 19.6046 25.1046 20.5 24 20.5C22.8954 20.5 22 19.6046 22 18.5C22 17.3954 22.8954 16.5 24 16.5C25.1046 16.5 26 17.3954 26 18.5ZM24 29C25.1046 29 26 28.1046 26 27C26 25.8954 25.1046 25 24 25C22.8954 25 22 25.8954 22 27C22 28.1046 22.8954 29 24 29Z" fill="#212121"/>
</svg>

<svg xmlns="http://www.w3.org/2000/svg" width="32" height="32"><path d="M8 1.75c.69 0 1.25.56 1.25 1.25v3.5h3.5a1.25 1.25 0 1 1 0 2.5h-3.5v4a1.25 1.25 0 1 1-2.5 0V9h-3.5a1.25 1.25 0 1 1 0-2.5h3.5V3c0-.69.56-1.25 1.25-1.25Zm5.634 25.116L9.768 23l3.866-3.866a1.25 1.25 0 0 0-1.768-1.768L8 21.232l-3.866-3.866a1.25 1.25 0 0 0-1.768 1.768L6.232 23l-3.866 3.866a1.25 1.25 0 0 0 1.768 1.768L8 24.768l3.866 3.866a1.25 1.25 0 0 0 1.768-1.768ZM19.25 6.5a1.25 1.25 0 1 0 0 2.5h9.5a1.25 1.25 0 1 0 0-2.5h-9.5Zm0 15a1.25 1.25 0 1 0 0 2.5h9.5a1.25 1.25 0 1 0 0-2.5h-9.5Zm6.75-3a2 2 0 1 1-4 0 2 2 0 0 1 4 0ZM24 29a2 2 0 1 0 0-4 2 2 0 0 0 0 4Z"/></svg>
